icons/snow-day.svg

<svg width="66" height="64" viewBox="0 0 66 64" fill="none" xmlns="http://www.w3.org/2000/svg">
<path d="M0 38.705C0 40.7867 0.516393 42.7474 1.57377 44.5386C2.60656 46.3298 4.03279 47.7821 5.85246 48.8714C7.64754 49.9607 9.63934 50.5416 11.7541 50.59C12.0246 50.59 12.1721 50.4448 12.1721 50.1785V46.9592C12.1721 46.6687 12.0246 46.4992 11.7541 46.4992C9.66393 46.4024 7.86885 45.5794 6.39344 44.0303C4.91803 42.4811 4.18033 40.7141 4.18033 38.6808C4.18033 36.6959 4.86885 34.9531 6.27049 33.4523C7.67213 31.9758 9.36885 31.1044 11.4344 30.8623L12.7377 30.7171C13.0328 30.7171 13.1803 30.5719 13.1803 30.2572L13.377 29.0227C13.6475 26.3843 14.7541 24.1815 16.7213 22.4145C18.6885 20.6475 21.0246 19.7761 23.7295 19.7761C26.4098 19.7761 28.7459 20.6475 30.7377 22.4145C32.7541 24.1815 33.8852 26.3601 34.1311 28.9501L34.3033 30.354C34.3033 30.6203 34.4508 30.7655 34.7213 30.7655H38.6803C40.8934 30.7655 42.7869 31.5401 44.3607 33.0893C45.9344 34.6384 46.7213 36.4781 46.7213 38.6324C46.7213 40.6657 45.9836 42.4327 44.5082 43.9818C43.0328 45.5068 41.2377 46.3298 39.1721 46.4508C38.877 46.4508 38.7049 46.5961 38.7049 46.9107V50.1301C38.7049 50.3964 38.8525 50.5416 39.1721 50.5416C42.4426 50.4448 45.1967 49.2345 47.4836 46.9107C49.7705 44.587 50.9016 41.8517 50.9016 38.6566C50.9016 36.8169 50.5574 35.1952 49.8443 33.7428C51.6885 31.4917 52.6721 28.829 52.6721 25.8033C52.6721 23.528 52.1066 21.4221 50.9508 19.4856C49.7951 17.5492 48.2213 16 46.2541 14.8623C44.2869 13.7247 42.123 13.1679 39.8115 13.1679C36.0246 13.1679 32.8525 14.5719 30.2951 17.3555C28.3033 16.2905 26.0902 15.7579 23.6803 15.7579C20.2131 15.7579 17.1639 16.823 14.4836 18.9289C11.8033 21.0348 10.1066 23.7458 9.34426 27.0136C6.59016 27.6914 4.35246 29.0953 2.60656 31.2496C0.860656 33.4281 0 35.8971 0 38.705ZM15.5902 48.5083C15.5902 49.0893 15.7869 49.5734 16.1803 49.9849C16.5738 50.3964 17.041 50.59 17.6311 50.59C18.1967 50.59 18.6885 50.3964 19.082 49.9849C19.4754 49.5734 19.6721 49.0893 19.6721 48.5083C19.6721 47.9516 19.4754 47.4917 19.082 47.1044C18.6885 46.7171 18.2213 46.5234 17.6311 46.5234C17.0656 46.5234 16.5738 46.7171 16.1803 47.1044C15.7869 47.4917 15.5902 47.9758 15.5902 48.5083ZM15.5902 57.295C15.5902 57.8033 15.7869 58.2632 16.1803 58.6747C16.623 59.062 17.0902 59.2557 17.6066 59.2557C18.1967 59.2557 18.6639 59.062 19.0574 58.6989C19.4508 58.3116 19.623 57.8517 19.623 57.295C19.623 56.7141 19.4262 56.2542 19.0328 55.8669C18.6393 55.4796 18.1721 55.3101 17.582 55.3101C17.0164 55.3101 16.5246 55.5038 16.1311 55.8669C15.7869 56.23 15.5902 56.7141 15.5902 57.295ZM20.6311 9.05295C20.6311 9.63389 20.8279 10.118 21.2213 10.4811L22.8443 12.0787C23.2377 12.466 23.6803 12.6838 24.1475 12.6838C24.6639 12.7564 25.1557 12.587 25.6475 12.1513C26.1393 11.7156 26.3852 11.2073 26.3852 10.6263C26.3852 10.0454 26.1885 9.51286 25.7951 9.07716L24.2213 7.6006C23.8525 7.18911 23.3852 6.99546 22.7951 6.99546C22.1803 6.99546 21.6639 7.18911 21.2459 7.6006C20.8279 7.9879 20.6311 8.47201 20.6311 9.05295ZM23.4098 53.1558C23.4098 53.6883 23.6066 54.1725 24 54.6082C24.3934 54.9955 24.8852 55.1891 25.4262 55.1891C26.0164 55.1891 26.5082 54.9955 26.9016 54.6082C27.2951 54.2209 27.5164 53.7368 27.5164 53.1558C27.5164 52.5991 27.3197 52.115 26.9016 51.7035C26.4836 51.292 25.9918 51.0983 25.4262 51.0983C24.8607 51.0983 24.3934 51.292 24 51.7035C23.6066 52.115 23.4098 52.5991 23.4098 53.1558ZM23.4098 44.4418C23.4098 44.9985 23.6066 45.4584 24 45.8457C24.3934 46.233 24.8852 46.4266 25.4262 46.4266C26.0164 46.4266 26.5082 46.233 26.9016 45.8457C27.3197 45.4584 27.5164 44.9985 27.5164 44.4176C27.5164 43.8608 27.3197 43.3767 26.9016 42.9894C26.4836 42.6021 25.9918 42.4085 25.4262 42.4085C24.8607 42.4085 24.3934 42.6021 24 42.9894C23.6066 43.3767 23.4098 43.885 23.4098 44.4418ZM23.4098 62.0151C23.4098 62.5477 23.6066 63.0076 24 63.3949C24.418 63.8064 24.8852 64 25.4262 64C26.0164 64 26.5082 63.8064 26.9016 63.4433C27.3197 63.056 27.5164 62.5961 27.5164 62.0151C27.5164 61.4342 27.3197 60.9501 26.9016 60.5628C26.4836 60.1513 25.9918 59.9576 25.4262 59.9576C24.8852 59.9576 24.418 60.1513 24 60.5628C23.6066 60.9743 23.4098 61.4584 23.4098 62.0151ZM31.3279 48.5083C31.3279 49.0893 31.5246 49.5734 31.918 49.9849C32.3115 50.3964 32.8033 50.59 33.3689 50.59C33.9344 50.59 34.4262 50.3964 34.8197 49.9849C35.2131 49.5734 35.4098 49.0893 35.4098 48.5083C35.4098 47.9516 35.2131 47.4917 34.8197 47.1044C34.4262 46.7171 33.959 46.5234 33.3689 46.5234C32.7787 46.5234 32.3115 46.7171 31.918 47.1044C31.5246 47.4917 31.3279 47.9758 31.3279 48.5083ZM31.3279 57.295C31.3279 57.8033 31.5246 58.2632 31.8934 58.6747C32.3361 59.062 32.8279 59.2557 33.3689 59.2557C33.959 59.2557 34.4262 59.062 34.8197 58.6989C35.2131 58.3116 35.3852 57.8517 35.3852 57.295C35.3852 56.7141 35.1885 56.2542 34.7951 55.8669C34.4016 55.4796 33.9344 55.3101 33.3443 55.3101C32.7541 55.3101 32.2623 55.5038 31.8689 55.8911C31.5246 56.2542 31.3279 56.7383 31.3279 57.295ZM33.7377 19.6551C35.4344 18.0575 37.4508 17.2587 39.8115 17.2587C42.1967 17.2587 44.2377 18.1059 45.9098 19.7761C47.6066 21.4463 48.4426 23.4796 48.4426 25.8033C48.4426 27.3041 48.0246 28.8048 47.1885 30.2572C44.8525 27.9334 42 26.7716 38.6557 26.7716H37.8689C37.1311 23.9395 35.7541 21.5673 33.7377 19.6551ZM37.6721 7.01967C37.6721 7.5764 37.8689 8.06051 38.2869 8.4236C38.7049 8.78669 39.1967 8.98033 39.7869 8.98033C40.377 8.98033 40.8443 8.78669 41.2377 8.4236C41.6311 8.03631 41.8033 7.5764 41.8033 7.01967V2.08169C41.8033 1.50076 41.6066 1.01664 41.2131 0.605144C40.8197 0.193646 40.377 0 39.8115 0C39.2459 0 38.7541 0.217852 38.3361 0.62935C37.918 1.04085 37.6967 1.52496 37.6967 2.08169V7.01967H37.6721ZM51.2459 12.5144C51.2459 13.0711 51.4426 13.5552 51.8607 13.9425C52.2295 14.3298 52.6967 14.5234 53.2377 14.5719C53.7787 14.6203 54.2951 14.4024 54.7623 13.9425L58.2787 10.4811C58.7213 10.0454 58.918 9.56127 58.918 9.00454C58.918 8.4236 58.6967 7.93949 58.2787 7.52799C57.8607 7.11649 57.3689 6.92284 56.8033 6.92284C56.2623 6.92284 55.7951 7.11649 55.377 7.52799L51.8607 11.062C51.4426 11.4493 51.2459 11.9334 51.2459 12.5144ZM53.2131 41.0772C53.2131 41.6823 53.4098 42.1906 53.8033 42.5779L55.377 44.1029C55.9672 44.4902 56.5082 44.6838 56.9508 44.6838C57.4672 44.6838 57.9098 44.466 58.3279 44.0545C58.7459 43.643 58.9426 43.1346 58.9426 42.5779C58.9426 42.0212 58.7213 41.5613 58.3033 41.174L56.7787 39.6006C56.3361 39.2133 55.8443 39.0197 55.2787 39.0197C54.7131 39.0197 54.2213 39.2133 53.8279 39.6248C53.4098 40.0121 53.2131 40.4962 53.2131 41.0772ZM56.7787 25.8033C56.7787 26.3843 57 26.8442 57.418 27.2315C57.8361 27.6672 58.3525 27.885 58.9426 27.885H63.9098C64.4754 27.885 64.9672 27.6914 65.3852 27.2799C65.8033 26.8684 66 26.3843 66 25.8033C66 25.2224 65.8033 24.7383 65.3852 24.351C64.9672 23.9637 64.4754 23.7458 63.9098 23.7458H58.9426C58.3525 23.7458 57.8607 23.9395 57.418 24.351C56.9754 24.7625 56.7787 25.2466 56.7787 25.8033Z" fill="#0F172A"/>
</svg>

<?xml version="1.0" encoding="UTF-8"?><svg id="Layer_2" xmlns="http://www.w3.org/2000/svg" viewBox="0 0 66 64"><defs><style>.cls-1{fill:#97bace;}</style></defs><g id="Layer_1-2"><path id="snow-day" class="cls-1" d="M0,38.71c0,2.08,.52,4.04,1.57,5.83,1.03,1.79,2.46,3.24,4.28,4.33,1.8,1.09,3.79,1.67,5.9,1.72,.27,0,.42-.15,.42-.41v-3.22c0-.29-.15-.46-.42-.46-2.09-.1-3.89-.92-5.36-2.47-1.48-1.55-2.21-3.32-2.21-5.35s.69-3.73,2.09-5.23c1.4-1.48,3.1-2.35,5.16-2.59l1.3-.15c.3,0,.44-.15,.44-.46l.2-1.23c.27-2.64,1.38-4.84,3.34-6.61,1.97-1.77,4.3-2.64,7.01-2.64s5.02,.87,7.01,2.64c2.02,1.77,3.15,3.95,3.39,6.54l.17,1.4c0,.27,.15,.41,.42,.41h3.96c2.21,0,4.11,.77,5.68,2.32,1.57,1.55,2.36,3.39,2.36,5.54,0,2.03-.74,3.8-2.21,5.35-1.48,1.53-3.27,2.35-5.34,2.47-.3,0-.47,.15-.47,.46v3.22c0,.27,.15,.41,.47,.41,3.27-.1,6.02-1.31,8.31-3.63,2.29-2.32,3.42-5.06,3.42-8.25,0-1.84-.34-3.46-1.06-4.91,1.84-2.25,2.83-4.91,2.83-7.94,0-2.28-.57-4.38-1.72-6.32-1.16-1.94-2.73-3.49-4.7-4.62-1.97-1.14-4.13-1.69-6.44-1.69-3.79,0-6.96,1.4-9.52,4.19-1.99-1.06-4.2-1.6-6.61-1.6-3.47,0-6.52,1.07-9.2,3.17-2.68,2.11-4.38,4.82-5.14,8.08-2.75,.68-4.99,2.08-6.74,4.24-1.75,2.18-2.61,4.65-2.61,7.46Zm15.59,9.8c0,.58,.2,1.07,.59,1.48,.39,.41,.86,.61,1.45,.61s1.06-.19,1.45-.61c.39-.41,.59-.9,.59-1.48s-.2-1.02-.59-1.4c-.39-.39-.86-.58-1.45-.58s-1.06,.19-1.45,.58c-.39,.39-.59,.87-.59,1.4Zm0,8.79c0,.51,.2,.97,.59,1.38,.44,.39,.91,.58,1.43,.58,.59,0,1.06-.19,1.45-.56,.39-.39,.57-.85,.57-1.4s-.2-1.04-.59-1.43c-.39-.39-.86-.56-1.45-.56s-1.06,.19-1.45,.56c-.34,.36-.54,.85-.54,1.43ZM20.63,9.05c0,.58,.2,1.07,.59,1.43l1.62,1.6c.39,.39,.84,.61,1.3,.61,.52,.07,1.01-.1,1.5-.53,.49-.44,.74-.94,.74-1.53s-.2-1.11-.59-1.55l-1.57-1.48c-.37-.41-.84-.61-1.43-.61s-1.13,.19-1.55,.61c-.42,.39-.61,.87-.61,1.45Zm2.78,44.1c0,.53,.2,1.02,.59,1.45,.39,.39,.89,.58,1.43,.58,.59,0,1.08-.19,1.48-.58,.39-.39,.61-.87,.61-1.45s-.2-1.04-.61-1.45c-.42-.41-.91-.61-1.48-.61s-1.03,.19-1.43,.61c-.39,.41-.59,.9-.59,1.45Zm0-8.71c0,.56,.2,1.02,.59,1.4,.39,.39,.89,.58,1.43,.58,.59,0,1.08-.19,1.48-.58,.42-.39,.61-.85,.61-1.43s-.2-1.04-.61-1.43c-.42-.39-.91-.58-1.48-.58s-1.03,.19-1.43,.58c-.39,.39-.59,.9-.59,1.45Zm0,17.57c0,.53,.2,.99,.59,1.38,.42,.41,.89,.61,1.43,.61,.59,0,1.08-.19,1.48-.56,.42-.39,.61-.85,.61-1.43s-.2-1.06-.61-1.45c-.42-.41-.91-.61-1.48-.61s-1.01,.19-1.43,.61c-.39,.41-.59,.9-.59,1.45Zm7.92-13.51c0,.58,.2,1.07,.59,1.48,.39,.41,.89,.61,1.45,.61s1.06-.19,1.45-.61c.39-.41,.59-.9,.59-1.48s-.2-1.02-.59-1.4c-.39-.39-.86-.58-1.45-.58s-1.06,.19-1.45,.58c-.39,.39-.59,.87-.59,1.4Zm0,8.79c0,.51,.2,.97,.57,1.38,.44,.39,.93,.58,1.48,.58,.59,0,1.06-.19,1.45-.56,.39-.39,.57-.85,.57-1.4s-.2-1.04-.59-1.43c-.39-.39-.86-.56-1.45-.56s-1.08,.19-1.48,.58c-.34,.36-.54,.85-.54,1.4Zm2.41-37.64c1.7-1.6,3.71-2.4,6.07-2.4s4.43,.85,6.1,2.52c1.7,1.67,2.53,3.7,2.53,6.03,0,1.5-.42,3-1.25,4.45-2.34-2.32-5.19-3.49-8.53-3.49h-.79c-.74-2.83-2.11-5.2-4.13-7.12Zm3.93-12.64c0,.56,.2,1.04,.61,1.4,.42,.36,.91,.56,1.5,.56s1.06-.19,1.45-.56c.39-.39,.57-.85,.57-1.4V2.08c0-.58-.2-1.07-.59-1.48-.39-.41-.84-.61-1.4-.61s-1.06,.22-1.48,.63c-.42,.41-.64,.9-.64,1.45V7.02h-.02Zm13.57,5.49c0,.56,.2,1.04,.61,1.43,.37,.39,.84,.58,1.38,.63,.54,.05,1.06-.17,1.52-.63l3.52-3.46c.44-.44,.64-.92,.64-1.48s-.22-1.07-.64-1.48c-.42-.41-.91-.61-1.48-.61s-1.01,.19-1.43,.61l-3.52,3.53c-.42,.39-.61,.87-.61,1.45Zm1.97,28.56c0,.61,.2,1.11,.59,1.5l1.57,1.53c.59,.39,1.13,.58,1.57,.58,.52,0,.96-.22,1.38-.63,.42-.41,.61-.92,.61-1.48s-.22-1.02-.64-1.4l-1.52-1.57c-.44-.39-.93-.58-1.5-.58s-1.06,.19-1.45,.61c-.42,.39-.61,.87-.61,1.45Zm3.57-15.27c0,.58,.22,1.04,.64,1.43,.42,.44,.93,.65,1.52,.65h4.97c.57,0,1.06-.19,1.48-.61,.42-.41,.61-.9,.61-1.48s-.2-1.07-.61-1.45c-.42-.39-.91-.61-1.48-.61h-4.97c-.59,0-1.08,.19-1.52,.61-.44,.41-.64,.9-.64,1.45Z"/></g></svg>
